docs/svgs/room-terrace.svg

<svg viewBox="0 0 24 24" height="24px" width="24px" fill="#44739e" xmlns="http://www.w3.org/2000/svg"><title>hue:room-terrace</title><desc>Source: https://github.com/arallsopp/hass-hue-icons</desc><path d="M 20.679688 6.421875 C 20.964844 6.628906 21.085938 7.011719 20.933594 7.332031 C 20.691406 7.835938 20.167969 8.226562 19.566406 8.226562 C 19.175781 8.226562 18.820312 8.0625 18.550781 7.808594 C 18.273438 7.542969 17.835938 7.542969 17.558594 7.808594 C 17.289062 8.0625 16.933594 8.226562 16.539062 8.226562 C 16.148438 8.226562 15.792969 8.0625 15.523438 7.808594 C 15.246094 7.542969 14.808594 7.542969 14.53125 7.808594 C 14.261719 8.0625 13.90625 8.226562 13.511719 8.226562 C 13.234375 8.226562 12.976562 8.140625 12.75 8 L 12.75 13.476562 C 12.75 13.894531 12.414062 14.226562 12 14.226562 C 11.585938 14.226562 11.25 13.894531 11.25 13.476562 L 11.25 8 C 11.027344 8.140625 10.765625 8.226562 10.484375 8.226562 C 10.097656 8.226562 9.738281 8.0625 9.472656 7.808594 C 9.191406 7.542969 8.753906 7.542969 8.476562 7.808594 C 8.207031 8.0625 7.851562 8.226562 7.460938 8.226562 C 7.070312 8.226562 6.710938 8.0625 6.445312 7.808594 C 6.164062 7.542969 5.726562 7.542969 5.449219 7.808594 C 5.179688 8.0625 4.824219 8.226562 4.433594 8.226562 C 3.832031 8.226562 3.3125 7.835938 3.066406 7.332031 C 2.914062 7.011719 3.035156 6.628906 3.320312 6.421875 L 11.546875 0.152344 C 11.816406 -0.0507812 12.1875 -0.0507812 12.453125 0.152344 Z M 17.25 14.976562 C 18.078125 14.976562 18.75 15.648438 18.75 16.476562 C 18.75 17.304688 18.078125 17.976562 17.25 17.976562 L 13.9375 17.976562 L 17.832031 22.753906 C 18.09375 23.074219 18.046875 23.546875 17.722656 23.808594 C 17.585938 23.921875 17.417969 23.976562 17.25 23.976562 C 17.035156 23.976562 16.816406 23.882812 16.667969 23.703125 L 12 17.976562 L 7.332031 23.703125 C 7.070312 24.023438 6.597656 24.070312 6.277344 23.808594 C 5.957031 23.546875 5.90625 23.074219 6.167969 22.753906 L 10.066406 17.976562 L 6.75 17.976562 C 5.921875 17.976562 5.25 17.304688 5.25 16.476562 C 5.25 15.648438 5.921875 14.976562 6.75 14.976562 Z M 17.25 14.976562 "/></svg>

<svg viewBox="0 0 24 24" height="24px" width="24px" fill="#44739e" xmlns="http://www.w3.org/2000/svg"><title>hue:room-terrace</title><desc>Source: https://github.com/arallsopp/hass-hue-icons</desc><path d="M20.68,6.42c0.29,0.21,0.41,0.59,0.25,0.91c-0.24,0.5-0.77,0.89-1.37,0.89c-0.39,0-0.75-0.16-1.02-0.42 c-0.28-0.27-0.71-0.27-0.99,0c-0.27,0.25-0.62,0.42-1.02,0.42c-0.39,0-0.75-0.16-1.02-0.42c-0.28-0.27-0.71-0.27-0.99,0 c-0.27,0.25-0.62,0.42-1.02,0.42c-0.28,0-0.54-0.09-0.76-0.23v5.48c0,0.42-0.34,0.75-0.75,0.75s-0.75-0.33-0.75-0.75V8 c-0.22,0.14-0.48,0.23-0.77,0.23c-0.39,0-0.75-0.16-1.01-0.42c-0.28-0.27-0.72-0.27-1,0C8.21,8.06,7.85,8.23,7.46,8.23 c-0.39,0-0.75-0.16-1.02-0.42c-0.28-0.27-0.72-0.27-1,0C5.18,8.06,4.82,8.23,4.43,8.23c-0.6,0-1.12-0.39-1.37-0.89 c-0.15-0.32-0.03-0.7,0.25-0.91l8.23-6.27c0.27-0.2,0.64-0.2,0.91,0L20.68,6.42z M17.25,14.98c0.83,0,1.5,0.67,1.5,1.5 c0,0.83-0.67,1.5-1.5,1.5h-3.31l3.89,4.78c0.26,0.32,0.21,0.79-0.11,1.05c-0.14,0.11-0.3,0.17-0.47,0.17 c-0.21,0-0.43-0.09-0.58-0.27L12,17.98L7.33,23.7c-0.26,0.32-0.73,0.37-1.05,0.11c-0.32-0.26-0.37-0.73-0.11-1.05l3.9-4.78H6.75 c-0.83,0-1.5-0.67-1.5-1.5c0-0.83,0.67-1.5,1.5-1.5H17.25z"/></svg>
